public/images/article.svg

<svg width="24" height="24" viewBox="0 0 24 24" fill="none" xmlns="http://www.w3.org/2000/svg">
<path d="M20.0306 7.71938L14.7806 2.46938C14.7109 2.39975 14.6282 2.34454 14.5371 2.3069C14.4461 2.26926 14.3485 2.24992 14.25 2.25H5.25C4.85218 2.25 4.47064 2.40804 4.18934 2.68934C3.90804 2.97064 3.75 3.35218 3.75 3.75V20.25C3.75 20.6478 3.90804 21.0294 4.18934 21.3107C4.47064 21.592 4.85218 21.75 5.25 21.75H18.75C19.1478 21.75 19.5294 21.592 19.8107 21.3107C20.092 21.0294 20.25 20.6478 20.25 20.25V8.25C20.2501 8.15148 20.2307 8.05391 20.1931 7.96286C20.1555 7.87182 20.1003 7.78908 20.0306 7.71938ZM15 4.81031L17.6897 7.5H15V4.81031ZM18.75 20.25H5.25V3.75H13.5V8.25C13.5 8.44891 13.579 8.63968 13.7197 8.78033C13.8603 8.92098 14.0511 9 14.25 9H18.75V20.25ZM15.75 12.75C15.75 12.9489 15.671 13.1397 15.5303 13.2803C15.3897 13.421 15.1989 13.5 15 13.5H9C8.80109 13.5 8.61032 13.421 8.46967 13.2803C8.32902 13.1397 8.25 12.9489 8.25 12.75C8.25 12.5511 8.32902 12.3603 8.46967 12.2197C8.61032 12.079 8.80109 12 9 12H15C15.1989 12 15.3897 12.079 15.5303 12.2197C15.671 12.3603 15.75 12.5511 15.75 12.75ZM15.75 15.75C15.75 15.9489 15.671 16.1397 15.5303 16.2803C15.3897 16.421 15.1989 16.5 15 16.5H9C8.80109 16.5 8.61032 16.421 8.46967 16.2803C8.32902 16.1397 8.25 15.9489 8.25 15.75C8.25 15.5511 8.32902 15.3603 8.46967 15.2197C8.61032 15.079 8.80109 15 9 15H15C15.1989 15 15.3897 15.079 15.5303 15.2197C15.671 15.3603 15.75 15.5511 15.75 15.75Z" fill="#FECE27"/>
</svg>

<svg xmlns="http://www.w3.org/2000/svg" width="24" height="24" fill="none"><path fill="#FECE27" d="m20.03 7.72-5.25-5.25a.75.75 0 0 0-.53-.22h-9a1.5 1.5 0 0 0-1.5 1.5v16.5a1.5 1.5 0 0 0 1.5 1.5h13.5a1.5 1.5 0 0 0 1.5-1.5v-12a.75.75 0 0 0-.22-.53M15 4.81l2.69 2.69H15zm3.75 15.44H5.25V3.75h8.25v4.5a.75.75 0 0 0 .75.75h4.5zm-3-7.5a.75.75 0 0 1-.75.75H9A.75.75 0 1 1 9 12h6a.75.75 0 0 1 .75.75m0 3a.75.75 0 0 1-.75.75H9A.75.75 0 1 1 9 15h6a.75.75 0 0 1 .75.75"/></svg>
